X: 1
T: Jig for Annie
C: Ian T. Muir
R: jig
N: Recommended tune for Yorkshire Lasses, by Roy Goldring, in "A Reel for Alice".
Z: 2011 John Chambers <jc:trillian.mit.edu>
M: 6/8
L: 1/8
K: F
"C7"CDF |\
"F"A2A "Bb"GFD | "F"C3 "Bb7"DFG | "F"A2A "Bb"GFd | "F"c3 "Cdim"cBA |\
"Gm"c2B "C7"GAB | "Am"c2A "Dm"FEF |1 "G7"FEF DFA | "C"c3 :|2 "G7"DDD "C7"EFG | "F"FAc ||
|: "A7"^cde |\
"Dm"f2f fgf | "Am"edc "Bb"ded | "F"c2c AGF | "G"GAF "C"GAG |\
"Dm"F2F FGF | "Am"EDC "Bb"DEF | "F"CCC "C7"cBG |1 "F"FAc :|2 "F"F3 |]
